!! 00000] TT[00
!! NN
!!!OTL: Yuanyang jia laodiao
!!!ARE: Asia, China,ÿShandong, Huimin
!! Ethnic Group: Han
!! III, 407, unten)
!!!SCT: C0316A
!!!YEM: Copyright 1995, estate of Helmut Schaffrath.
**kern
*ICvox
*Ivox
*M2/4
*k[f#]
*G:
{4gg
8.dd
16gg
=1
8b
16b
16a
4b
=2
8dd
8dd
8b
8dd
=3
8ddd
8bb
4aa
=4
4aa
4aa
=5
4aa
[4aa
=6
4aa]}
{8bb
16bb
16ddd
=7
8.bb
16aa
4gg
=8
8.aa
16bb
8.dd
16ee
=9
4gg
4gg
=10
4gg
[4gg
=11
4gg]}
{8gg
16ff#
16gg
=12
8bb
8ee
8ee
8dd
=13
8dd
16ee
16ee
8dd
8b
=14
8gg
8gg
8dd
8gg
=15
8b
8dd
4dd}
=16
{8r
4gg
8dd
=17
4gg
8gg
8ee
=18
8gg
8gg
8dd
8gg
=19
4b}
{8.a
16b
=20
8dd
[4.dd
=21
8dd]
8ee
8dd
8ee
=22
8gg
8ee
4gg
=23
8.b
16gg
8b
8b
=24
8r
4dd
8a
=25
8.b
16a
8g
8a
=26
8g
4.r}
=27
{8r
4b
8a
=28
8.g
16a
8b
8r
=29
8r
4dd
8b
=30
8.ee
16b
16dd
8.r}
=31
{8gg
8dd
4gg
=32
8dd
8ee
4dd
=33
8gg
8gg
8dd
8gg
=34
8.ee
16b
16dd
8.r}
=35
{8r
4gg
8gg
=36
4dd
4gg
=37
8b
8r
4bb
=38
[2aa
=39
2aa_
=40
8aa]}
{8aa
8gg
8ee
=41
8dd
8b
4gg
=42
8r
8dd
8r
8b
=43
4b
8r
8dd
=44
8r
8a
16b
16dd
16b
16a
=45
8g
4.r}
=46
{8bb
16bb
16ddd
8bb
8aa
=47
4bb
4aa
=48
8aa
8r
8aa
8r
=49
2aa}
=50
{16bb
8bb
16ddd
16bb
16aa
8gg
=51
8.aa
16bb
8.dd
16ee
=52
4gg
4gg
=53
4gg
[4gg
=54
4gg]}
{8gg
16ff#
16gg
=55
8aa
8ee
8.dd
16b
=56
8dd
8dd
4ee
=57
8dd
16gg
16gg
8gg
8gg
=58
8.ee
16b
4dd}
=59
{8.aa
16aa
8gg
8aa
=60
8gg
8aa
8gg
8ee
=61
8.aa
16aa
8gg
8ee
=62
8dd
8ee
4dd}
=63
{8.b
16a
8b
8b
=64
8.b
16a
8b
8b
=65
8r
8ee
8b
8dd
=66
8bb
8gg
[4aa
=67
2aa_
=68
8aa]}
{8ddd
8bb
8aa
=69
8.bb
16aa
8gg
8aa
=70
8.gg
16aa
8gg
8aa}
=71
{4aa
4aa
=72
8aa
8ddd
4ff#
=73
4ff#
4ff#
=74
4ff#
[4ff#
=75
2ff#]}
=76
{8r
4aa
8ee
=77
4ff#
8r
8ee
=78
4dd
8b
8r
=79
8dd
16dd
16ee
8gg
8ee
=80
8dd
16dd
16ee
4gg}
=81
{8r
8gg
8ee
8dd
=82
8.b
16dd
8b
8a
=83
8r
4dd
8a
=84
8.b
16a
8g
8a
=85
4g
8g
8r}
==
!!!AGN: Wuge, Yangge, Guzi yangge. Minjian gushi
!! Geschichte dazu: Ein Maedchen ist mit einem alten Mann verheiratet,
!!    der viele Frauen und Nebenfrauen hat. Am Ende "verschwestern" sich
!!    alle gegen den Alten. - Das Lied enthaelt Elemente der Xiqu - Oper.
!!    Als Lokaloper aufgefuehrt. Dauer der Oper: 2 Stunden
!!    +++Das Lied wurde GETEILT!!! Fortsetzung im folgenden Dokument unter
!!    gleicher Signatur B. Phrasierung pruefen!!
!!    Wenig Verzierungen. Vor- und Zwischenspiele weggelassen.
!!!ONB: ESAC (Essen Associative Code) Database: CHINA
!!!AMT: simple duple
!!!AIN: vox
!!!EED: Helmut Schaffrath
!!!EEV: 1.0
*-
!!!ONB: Tied note syntax fixed by Craig Sapp, 2004/05/03/
